assets/img/Brands/etsy.svg

<svg width="67" height="32" viewBox="0 0 67 32" fill="none" xmlns="http://www.w3.org/2000/svg">
<path d="M7.80053 11.2955V2.54612C7.80053 2.22192 7.83287 2.02748 8.38405 2.02748H15.8046C17.1011 2.02748 17.814 3.12945 18.3326 5.20325L18.7538 6.85621H20.0175C20.2441 2.15762 20.4384 0.115967 20.4384 0.115967C20.4384 0.115967 17.2628 0.472317 15.3832 0.472317H5.88902L0.800579 0.310217V1.67132L2.51842 1.99533C3.71742 2.2223 4.0085 2.48124 4.1065 3.58341C4.1065 3.58341 4.20391 6.82386 4.20391 12.171C4.20391 17.5175 4.1065 20.726 4.1065 20.726C4.1065 21.698 3.71742 22.0543 2.51842 22.2819L0.800579 22.6061V23.9664L5.88902 23.8047H14.3792C16.2911 23.8047 20.7306 23.9664 20.7306 23.9664C20.8274 22.7996 21.476 17.5175 21.5733 16.9349H20.3743L19.1104 19.819C18.1056 22.0869 16.6477 22.2492 15.0271 22.2492H10.1983C8.57791 22.2492 7.80014 21.601 7.80014 20.2077V12.8191C7.80014 12.8191 11.3323 12.8191 12.5634 12.9165C13.4709 12.9815 14.0215 13.2407 14.3136 14.5044L14.7027 16.1895H16.0954L15.9985 11.9439L16.1928 7.66671H14.7997L14.3463 9.54607C14.0543 10.7774 13.8602 11.0048 12.5961 11.134C11.1706 11.2964 7.79995 11.2639 7.79995 11.2639V11.2961H7.80053V11.2955V11.2955ZM27.0169 3.45365C26.5631 5.46276 26.1094 7.01811 24.5215 8.05521C23.5494 8.70303 22.577 8.92962 22.1887 8.96216V10.1935H25.0726V20.1419C25.0726 22.9291 26.92 24.2904 29.3825 24.2904C31.2946 24.2904 33.271 23.4803 33.9518 21.7948L33.271 20.9198C32.9468 21.471 31.9105 22.2809 30.6141 22.2809C29.1885 22.2809 28.4107 21.3085 28.4107 18.8462V10.0645L33.2071 10.4213L33.466 8.21712L28.4109 8.41175V3.4858L27.0169 3.45365V3.45365ZM37.2573 18.7557L36.026 18.7881C36.0906 19.5008 36.1234 20.4085 36.1234 21.251C36.1234 22.1259 36.091 22.9361 36.026 23.3248C36.026 23.3248 38.4888 24.2313 40.984 24.2313C44.3543 24.2313 47.0441 22.6111 47.0441 19.4353C47.0441 13.9919 38.8779 14.8022 38.8779 11.1397C38.8779 9.61691 40.2388 9.03339 41.7295 9.03339C42.8961 9.03339 43.8682 9.45462 44.0626 10.0709L44.8729 12.5012L46.0721 12.4365C46.1695 11.1401 46.234 9.64945 46.4286 8.45064C45.3914 7.99688 43.22 7.73717 41.86 7.73717C38.6835 7.73717 36.1239 9.13081 36.1239 12.2419C36.1239 17.6534 44.0953 16.5516 44.0953 20.5381C44.0953 21.9633 43.22 22.968 41.2438 22.968C39.4295 22.968 38.5217 22.0285 38.166 21.0883L37.2573 18.7557V18.7557ZM56.7888 22.4994C54.9127 27.74 52.6162 29.0976 50.5462 29.0976C49.6724 29.0976 49.2523 28.7091 49.1224 28.0955L48.6372 25.5718L47.2784 25.6365C47.0197 27.1247 46.7609 28.7749 46.4055 30.1332C47.2143 30.7469 48.5721 31.0711 49.64 31.0711C51.8725 31.0711 55.2685 30.7794 58.3732 23.4048L63.5814 11.1135C64.0023 10.1105 64.1634 10.0135 65.3926 9.52797L66.072 9.2698V8.13761L62.9989 8.29932L59.6997 8.13761V9.2698L60.5402 9.52797C61.3809 9.78729 61.7698 10.1105 61.7698 10.6929C61.7698 10.9838 61.6724 11.2751 61.5103 11.7275C61.0252 12.9575 58.0169 20.2674 57.2091 21.8204L58.0167 21.5288C56.5932 18.0032 54.427 12.1156 54.1032 11.1137C54.0385 10.9195 54.0062 10.7578 54.0062 10.5953C54.0062 10.078 54.3619 9.65734 55.1383 9.49582L56.2059 9.26999V8.1378L51.7739 8.29951L48.2483 8.1378V9.26999L48.8307 9.46386C49.6393 9.72261 49.8335 9.9492 50.3187 11.0812C53.0026 17.2273 54.2649 20.5908 55.9785 24.9904L56.7888 22.4994V22.4994Z" fill="#999999"/>
</svg>

<svg width="67" height="32" fill="none" xmlns="http://www.w3.org/2000/svg"><path d="M7.8 11.296v-8.75c0-.324.033-.519.584-.519h7.42c1.297 0 2.01 1.102 2.529 3.176l.42 1.653h1.264c.227-4.698.421-6.74.421-6.74s-3.175.356-5.055.356H5.89L.801.31v1.361l1.717.324c1.2.227 1.49.486 1.588 1.588 0 0 .098 3.24.098 8.588 0 5.346-.098 8.555-.098 8.555 0 .972-.389 1.328-1.588 1.556l-1.717.324v1.36l5.088-.161h8.49c1.912 0 6.352.161 6.352.161.096-1.166.745-6.449.842-7.031h-1.199l-1.264 2.884c-1.004 2.268-2.462 2.43-4.083 2.43h-4.829c-1.62 0-2.398-.648-2.398-2.041v-7.389s3.532 0 4.763.097c.908.066 1.458.325 1.75 1.588l.39 1.685h1.392L16 11.944l.194-4.277H14.8l-.454 1.88c-.292 1.23-.486 1.458-1.75 1.587-1.425.162-4.796.13-4.796.13v.032zm19.217-7.842c-.454 2.009-.908 3.564-2.495 4.601-.973.648-1.945.875-2.333.907v1.232h2.884v9.948c0 2.787 1.847 4.148 4.31 4.148 1.912 0 3.888-.81 4.569-2.495l-.681-.875c-.324.551-1.36 1.36-2.657 1.36-1.425 0-2.203-.972-2.203-3.434v-8.781l4.796.356.259-2.204-5.055.195V3.486l-1.394-.032zm10.24 15.302l-1.231.032c.065.713.097 1.62.097 2.463 0 .875-.032 1.685-.097 2.074 0 0 2.463.906 4.958.906 3.37 0 6.06-1.62 6.06-4.796 0-5.443-8.166-4.633-8.166-8.295 0-1.523 1.36-2.107 2.852-2.107 1.166 0 2.138.422 2.333 1.038l.81 2.43 1.2-.064c.096-1.297.161-2.788.356-3.986-1.038-.454-3.209-.714-4.569-.714-3.176 0-5.736 1.394-5.736 4.505 0 5.411 7.971 4.31 7.971 8.296 0 1.425-.875 2.43-2.851 2.43-1.815 0-2.722-.94-3.078-1.88l-.909-2.332zm19.532 3.743c-1.876 5.241-4.173 6.599-6.243 6.599-.874 0-1.294-.389-1.424-1.002l-.485-2.524-1.359.065c-.258 1.488-.517 3.138-.872 4.496.808.614 2.166.938 3.234.938 2.233 0 5.629-.292 8.733-7.666l5.208-12.292c.421-1.002.582-1.1 1.812-1.585l.679-.258V8.138l-3.073.161-3.3-.161V9.27l.841.258c.84.26 1.23.582 1.23 1.165 0 .29-.098.582-.26 1.034-.485 1.23-3.493 8.54-4.3 10.093l.807-.291c-1.424-3.526-3.59-9.413-3.914-10.415a1.61 1.61 0 01-.097-.519c0-.517.356-.938 1.132-1.1l1.068-.225V8.138l-4.432.162-3.526-.162V9.27l.583.194c.808.259 1.002.485 1.488 1.617 2.684 6.146 3.946 9.51 5.66 13.91l.81-2.492z" fill="#999"/></svg>
